X: 1
T: String Quartet in C Major opus 33 no 3 mvt 2
C: Franz Joseph Haydn
%%abc-version 2.0
%%abcx-abcm2ps-target-version 5.9.1 (29 Sep 2008)
%%abc-creator hum2abc beta
%%abcx-conversion-date 2021/02/14 14:38:29
%%abc-copyright Copyright (c) 1994, 2000 Center for Computer Assisted Research in the Humanities
%%abc-edited-by Frances Bennion
%%abcx-initial-encoding-date 1997/04/15
%%gracespace 0 6 6
%%humdrum-veritas 1793785288
%%humdrum-veritas-data 2190855583
%%linebreak <none>
%%barnumbers 0
L: 1/4
M: 3/4
N: Derived from op33n3-02.krn
Q: "Scherzo: Allegretto"
%%staves [1 2 3 4]
V: 1
V: 2
V: 3 clef=alto
V: 4 clef=bass
K: C
[V:1]z2 C [I:setbarnb1] |
[V:2]z2 C |
[V:3]z2 G, |
[V:4]z2 E,, |
[V:1]C2 D |
[V:2]C2 A, |
[V:3]G,2 A, |
[V:4]E,,2 F,, |
[V:1]C B, C |
[V:2]G,3 |
[V:3]G, F, E, |
[V:4]E,, D,, C,, |
[V:1]D E F |
[V:2]B, C D |
[V:3]G,3 |
[V:4]B,, A,, G,, |
[V:1]F E D |
[V:2]D C A, |
[V:3]G,2 A, |
[V:4]C,2 F,, |
[V:1]D2 E |
[V:2]A,2 _B, |
[V:3]D,2 _B, |
[V:4]F,,2 G,, |
[V:1]D ^C D |
[V:2]A,3 |
[V:3]A, G, F, |
[V:4]F,, E,, D,, |
[V:1]E G ^F |
[V:2]A, E D |
[V:3]E, A, A, |
[V:4]^C,,2 D,, |
[V:1]D F E |
[V:2]D2 C |
[V:3]G,3 |
[V:4]B,,2 C, |
[V:1]D C B, |
[V:2]A, G, B, |
[V:3]F, E, D, |
[V:4]F,, G,, G,, |
[V:1]C z G |
[V:2]C z G, |
[V:3]C, z E, |
[V:4]C,, z E,, |
[V:1]G2 F |
[V:2]G,2 B, |
[V:3]E,2 G, |
[V:4]E,,2 D,, |
[V:1]E D A |
[V:2]C B, A, |
[V:3]G,2 F, |
[V:4]C,, G,, F,, |
[V:1]A2 G |
[V:2]A,2 ^C |
[V:3]F,2 A, |
[V:4]F,,2 E,, |
[V:1]F E D |
[V:2]D ^C D |
[V:3]A, A, F, |
[V:4]D,, A,, _B,, |
[V:1]D D D |
[V:2]_B, B, B, |
[V:3]F, F, F, |
[V:4]_B,, B,, B,, |
[V:1]E F G |
[V:2]_B, A, G, |
[V:3]G, F, E, |
[V:4]G,, F,, E,, |
[V:1]F A ^C |
[V:2]A,2 ^C |
[V:3]D,2 E, |
[V:4]A,,3 |
[V:1]D z F |
[V:2]D z D |
[V:3]D, z A, |
[V:4]D,, z D, |
[V:1]F2 ^F |
[V:2]D2 _E |
[V:3]A,2 A, |
[V:4]D,2 C, |
[V:1]^F G D |
[V:2]_E D B, |
[V:3]A, G, G, |
[V:4]C, B,, F, |
[V:1]D2 E |
[V:2]B,2 ^C |
[V:3]G,2 G,- |
[V:4]F,2 E, |
[V:1]E F D |
[V:2]^C D B, |
[V:3]G, F, G,- |
[V:4]E, D, G, |
[V:1]E F D |
[V:2]C A, A, |
[V:3]G, A, F, |
[V:4]C, F,, F,, |
[V:1]B,2 C |
[V:2]G,2 C |
[V:3]D,2 G, |
[V:4]G,,2 E,, |
[V:1]C2 D |
[V:2]C2 A, |
[V:3]G,2 A, |
[V:4]E,,2 F,, |
[V:1]C B, C |
[V:2]G,3 |
[V:3]G, F, E, |
[V:4]E,, D,, C,, |
[V:1]D E F |
[V:2]B, C D |
[V:3]G,3- |
[V:4]B,, A,, G,, |
[V:1]F E D |
[V:2]D C A, |
[V:3]G,2 A, |
[V:4]C,2 F,, |
[V:1]D2 E |
[V:2]A,2 _B, |
[V:3]D,2 _B, |
[V:4]F,,2 G,, |
[V:1]D ^C D |
[V:2]A,3 |
[V:3]A, G, F, |
[V:4]F,, E,, D,, |
[V:1]E G ^F |
[V:2]A, E D |
[V:3]E, A, A, |
[V:4]^C,,2 D,, |
[V:1]D F E |
[V:2]D2 C |
[V:3]G,3 |
[V:4]B,,2 C, |
[V:1]D C B, |
[V:2]A, G, B, |
[V:3]F, E, D, |
[V:4]F,, G,, G,, |
[V:1]C z g |
[V:2]C z2 |
[V:3]C, z2 |
[V:4]C,, z2 |
[V:1]g z a |
[V:2]e c f |
[V:3]z3 |
[V:4]z3 |
[V:1]g z f |
[V:2]e c G |
[V:3]z3 |
[V:4]z3 |
[V:1]e/g/ e/g/ f/d/ |
[V:2]c C G |
[V:3]z3 |
[V:4]z3 |
[V:1]c z d |
[V:2]C/E/ G/c/ B/G/ |
[V:3]z3 |
[V:4]z3 |
[V:1]e/g/ e/g/ ^f/a/ |
[V:2]c c A |
[V:3]z3 |
[V:4]z3 |
[V:1]g z a |
[V:2]B/d/ B/G/ ^F/D/ |
[V:3]z3 |
[V:4]z3 |
[V:1]b/c'/ d'/b/ c'/a/ |
[V:2]G B d |
[V:3]z3 |
[V:4]z3 |
[V:1]g z g |
[V:2]G G, e/G/ |
[V:3]z3 |
[V:4]z3 |
[V:1]f z e |
[V:2]d/G/ d/G/ c/G/ |
[V:3]z3 |
[V:4]z3 |
[V:1]d z g |
[V:2]B/G/ B/G/ e/G/ |
[V:3]z3 |
[V:4]z3 |
[V:1]f z e |
[V:2]d/G/ d/G/ c/G/ |
[V:3]z3 |
[V:4]z3 |
[V:1]d/B/ c/d/ e/f/ |
[V:2]B/G/ A/B/ c/d/ |
[V:3]z3 |
[V:4]z3 |
[V:1]g z a |
[V:2]e/c/ e/c/ f/c/ |
[V:3]z3 |
[V:4]z3 |
[V:1]g z f |
[V:2]e/c/ e/c/ d/G/ |
[V:3]z3 |
[V:4]z3 |
[V:1]e/g/ c'/e'/ d'/b/ |
[V:2]c e g |
[V:3]z3 |
[V:4]z3 |
[V:1]c' z2 |]
[V:2]c z2 |]
[V:3]z3 |]
[V:4]z3 |]

